!!!!SEGMENT: pl-wtm--r-90-n--008_noskowski-zygmunt--piesni-op-63-jesienia-na-drzewach-sie-mienia.krn
!!!cenid: 18xx:2127
!!!COM: Noskowski, Zygmunt
!!!COM-rismID: pe106604
!!!CDT: 1846/05/02-1909/07/23
!!!CNT: Polish
!!!GTL: Pieśni op. 63
!!!OTL: Jesienią na drzewach się mienią
!!!PDT: 1899
!!!AGN: Secular; Song
!!!SMS-siglum: PL-Wtm
!!!SMS-shelfmark: R 90/N
!!!SMS-shelfwork: 008 G
!!!SMS-variant:
!!!SMS-altvar:
!!!NIFC-rismSourceID: 1001100016
!!!NIFC-islandoraID:
!!!URL-pdf-islandora:
!!!URL-scan:
!!!ONB-nifc: UWAGA: w zbiorze 10 krótkich pieśni
!!!AIN: 1 piano
!!!key: A-
!!!OMD:
!!!OMD-mod: Andantino
!!!filter-modern: sic -sq | shed -e "s/yy//" | shed -e "s/TX(.*):t=P:/tx$1:t=P:/LG" | autostem -r | tie -s  | modori -m
**kern	**kern	**text
*part1	*part1	*part1
*staff2	*staff1	*staff1
*Ipiano	*Ipiano	*
*I"[Piano]	*I"[Piano]	*
*mI"Pianoforte	*mI"Pianoforte	*
*mI'pf	*mI'pf	*
*clefF4	*clefG2	*
*k[b-e-a-d-]	*k[b-e-a-d-]	*
*A-:	*A-:	*
*M6/8	*M6/8	*
=1	=1	=1
*all\right	*all\right	*
!	!LO:TX:a:i:t=Andantino.:mod=	!
8C\L	4.ryy	.
8E-\	.	.
8F\J	.	.
8E-\L	4ryy	.
8F\	.	.
8E-\J	8e-/	Je-
=2	=2	=2
8AA-\L	4.cc 4.e-/	-sie-
8F\	.	.
8E-\J	.	.
8AA-\L	8b- 8d-/	-nią,
8F\	8r	.
8E-\J	8dd- 8f/	je-
=3	=3	=3
8AA-\L	4.cc 4.e-/	-sie-
8E-\	.	.
8F\J	.	.
8E-\L	4a- 4c/	-nią
8F\	.	.
8E-\J	8f 8c/	Na
=4	=4	=4
*	*^	*
8AA-\L	(<4g/	4.d-\	drze-
8F\	.	.	.
8E-\J	8b-/)	.	.
8AA-\L	4e-/	4d-\	-wach
8F\	.	.	.
8E-\J	8g/	8ryy	się
*	*v	*v	*
=5	=5	=5
8AA-\L	4.f 4.d-/	mie-
8E-\	.	.
8F\J	.	.
8G\L	4e- 4d-/	-nią
8F\	.	.
8E-\J	8e- 8d-/	Prze-
=6	=6	=6
*	*^	*
8AA-\L	(>4a-/	4c\	-śli-
8F\	.	.	.
8E-\J	8g/)	2ryyyy	.
8A-\L	4a- 4c/	.	-cznie,
8E-\	.	.	.
8A-J 8D-\	8cc 8e-/	.	og-
*	*v	*v	*
!!LO:LB:g=original
=7	=7	=7
8C\L	4.ee- 4.g-X/	-niś-
8B-\	.	.
8A-\J	.	.
8D-\L	4dd- 4f/	-cie
8B-\	.	.
8A-\J	8cc/	O-
=8	=8	=8
*	*^	*
8BB-\L	8b-/L	4.d-\	-wo-
8F\	8dd-/	.	.
8A-\J	8f/J	.	.
8E-\L	4g 4d-/	8ryyyy	-ce
8B-\	.	4ryyyy	.
8E-\J	8cc/	.	i
*	*v	*v	*
=9	=9	=9
8AA-\L	4.b- 4.d-/	liś-
8F\	.	.
8E-\J	.	.
4A- 4AA-\	4a- 4c/	-cie.
8rBByy	8r	.
==	==	==
*-	*-	*-
!!!system-decoration: {(s1,s2)}
!!!RDF**kern: > = above
!!!RDF**kern: < = below
!!!EED: Antoni Szymański
!!!EEV: 2021-06-05
!!!ENC: Anastazja Marusiak
!!!END: 2021-05-12
!!!ENC-modern: Andrzej Borzym
!!!END-modern: 2022-08-22
